assets/maestro.svg

<svg viewBox="0 0 24 16" fill="none" xmlns="http://www.w3.org/2000/svg">
<path d="M0 2C0 0.895431 0.895431 0 2 0H22C23.1046 0 24 0.895431 24 2V14C24 15.1046 23.1046 16 22 16H2C0.89543 16 0 15.1046 0 14V2Z" fill="#CCEFFF"/>
<path d="M14.6244 12.7179H9.37492V3.28365H14.6244V12.7179Z" fill="#6C6BBD"/>
<path d="M9.71121 8C9.71121 6.08621 10.6073 4.38146 12.0026 3.28285C10.9822 2.47949 9.69443 2 8.29485 2C4.98148 2 2.29561 4.68624 2.29561 8C2.29561 11.3137 4.98148 14 8.29485 14C9.69443 14 10.9822 13.5205 12.0026 12.7171C10.6073 11.6185 9.71121 9.91379 9.71121 8Z" fill="#EB001B"/>
<path d="M21.7044 8C21.7044 11.3137 19.0185 14 15.7051 14C14.3056 14 13.0177 13.5205 11.9969 12.7171C13.3927 11.6185 14.2888 9.91379 14.2888 8C14.2888 6.08621 13.3927 4.38146 11.9969 3.28285C13.0177 2.47949 14.3056 2 15.7051 2C19.0185 2 21.7044 4.68624 21.7044 8Z" fill="#0099DF"/>
</svg>

<svg xmlns="http://www.w3.org/2000/svg" width="24" height="16" viewBox="0 0 24 16">
  <path fill="#e6e6e6" d="M0 2a2 2 0 0 1 2-2h20a2 2 0 0 1 2 2v12a2 2 0 0 1-2 2H2a2 2 0 0 1-2-2V2Z" />
  <path fill="#6c6bbd" d="M14.624 12.718h-5.25V3.284h5.25v9.434Z" />
  <path fill="#eb001b" d="M9.711 8a5.99 5.99 0 0 1 2.292-4.717 6 6 0 1 0 0 9.434A5.99 5.99 0 0 1 9.71 8Z" />
  <path fill="#0099df"
    d="M21.704 8a6 6 0 0 1-9.707 4.717A5.989 5.989 0 0 0 14.289 8a5.99 5.99 0 0 0-2.292-4.717A6 6 0 0 1 21.704 8Z" />
</svg>
